X:060 
T:Father Kelly's Reel 
F:file ID: cre.5/060fr_kelly
B:CRE5.138 (Ril an Athar UÃÂÃÂÃÂÃÂ­ Cheallaigh)
N:This isn't the well-known session tune (actually called
"Rossmore Jetty"). I don't know if this has a "birth name"
or not.
M:4/4
Q:180
R:reel
K:G
F|GEDE G3A|Bdgd BGGB|AGEG AGAc|Bdgd BcAB|
GEDE G2GA|Bdgd BGG2|Bded BdgB|cedc BGG:|
|:f|gede g2ga|bgaf gede|agea a^gab|[ac']abg agea|
gede gfga|bgaf gfed|Bded BdgB|1 cedc BGG:|\
[2 cedc BGHG2|]

%%%

